X:231
T: Alter Reihen um das erste Veilchen
N: A0280A
O: Europa, Mitteleuropa, Deutschland
N: Babst Gsgb 1553 II No. 35.
R: Romanze, Ballade, Lied
M: 4/2
L: 1/2
K: G
G | G2GG | A2A
A | _BA=FA | _B2z
G | A_BcA | _B2A
A | GA_BA | =F2
D2 | =FGAA | G3

